X:1
T:HALLELUJAH LAT'ORUN WA
T:HALLELUJAH LAT'ORUN WA
T:CCC HYMN 576
T:CELESTIAL CHURCH OF CHRIST
T:Copyright © CCC Central Choir
C:CELESTIAL CHURCH OF CHRIST
Z:Copyright © CCC Central Choir
%%score [ ( 1 2 ) ( 3 4 ) ]
L:1/8
Q:1/4=76
M:4/4
K:Bb
V:1 treble nm="Women"
V:2 treble 
V:3 bass nm="Men"
V:4 bass 
V:1
 D2 | F2 B2 A2 c2 | B2 B2 F2 F2 | G2 F2 E2 D2 | C6 | D2 | F2 B2 A2 c2 | B2 B2 F2 F2 | D2 F2 E2 C2 | %9
w: |||||||||
 B,6 | F2 | F2 F2 F2 F2 | G6 G2 | A2 A2 G2 A2 | B6 | B2 | c2 B2 A2 G2 | F2 DE F2 B2 | c4 A4 | B6 | %20
w: ||||||A-|won an- ge- li|kun f'a- * yo, Pe-|lu i-|yin.|
 B8 | B8 |] %22
w: A-|min.|
V:2
 D2 | D2 D2 C2 E2 | D2 D2 D2 D2 | E2 D2 C2 B,2 | A,6 | B,2 | B,2 D2 C2 E2 | D2 D2 D2 D2 | %8
w: Ha-|lle- lu- jah la-|t'o- run wa pe-|lu o- rin a-|yo;|O-|lu- gba- la yio|pa- da wa lai|
 B,2 B,2 A,2 A,2 | B,6 | D2 | D2 D2 D2 D2 | E6 =E2 | F2 F2 E2 E2 | D6 | F2 | E2 E2 E2 E2 | %17
w: ko ni i- re-|ti.|E|f'o- go f'O- lu-|wa! E|f'o- go f'O- lu-|wa!|||
 D2 B,C D2 D2 | E4 (C2 E2) | D6 | E8 | D8 |] %22
w: |||||
V:3
 B,2 | B,2 B,2 F,2 A,2 | B,2 F,2 B,2 B,2 | B,2 B,2 F,2 F,2 | (F,4 E,2) | D,2 | D,2 F,2 F,2 A,2 | %7
 B,2 B,2 B,2 B,2 | F,2 D,2 F,2 F,E, | D,6 | B,2 | B,2 B,2 B,2 B,2 | B,6 B,2 | C2 C2 C2 C2 | %14
 (B,3 A, B,2) | B,2 | G,2 G,2 G,A, B,C | B,2 B,2 B,2 F,2 | G,4 F,4 | F,6 | G,8 | F,8 |] %22
V:4
 B,,2 | B,,2 D,2 F,2 F,2 | B,,2 B,,2 B,,2 B,,2 | E,2 B,,2 A,,2 B,,2 | F,,6 | B,,2 | %6
 B,,2 B,,D, F,2 ^F,2 | G,2 G,2 D,2 B,,2 | B,,2 B,,2 F,,2 F,,2 | B,,6 | B,,2 | B,,2 B,,2 B,,C, D,2 | %12
 E,6 C,2 | F,2 F,2 ^F,2 F,2 | G,6 | D,2 | E,2 E,2 E,F, G,A, | B,2 F,2 B,,2 B,,2 | (E,2 C,2) F,4 | %19
 B,,6 | E,8 | B,,8 |] %22

